packages/foundations/assets/icons/functional/images/notification/exclamation_mark_circle_32.svg

<svg width="32" height="32" viewBox="0 0 32 32" fill="none" xmlns="http://www.w3.org/2000/svg">
<g clip-path="url(#clip0_187_172)">
<path fill-rule="evenodd" clip-rule="evenodd" d="M16 2C23.7188 2 30 8.2813 30 16C30 23.7187 23.7188 30 16 30C8.2813 30 2 23.7187 2 16C2 8.2813 8.2813 2 16 2ZM16 4C9.375 4 4 9.375 4 16C4 22.625 9.375 28 16 28C22.625 28 28 22.625 28 16C28 9.375 22.625 4 16 4ZM16 9C15.4375 9 15 9.4366 15 10V17.75C15 18.3444 15.4688 18.75 16 18.75C16.5625 18.75 17 18.3134 17 17.75V10C17 9.2494 16.4375 9 16 9ZM16 23.3437C15.2813 23.3437 14.6563 22.7187 14.6563 22C14.6563 21.25 15.2813 20.6562 16 20.6562C16.75 20.6562 17.3438 21.25 17.3438 22C17.3438 22.7187 16.75 23.3437 16 23.3437Z" fill="#1A1C1F"/>
</g>
<defs>
<clipPath id="clip0_187_172">
<rect width="32" height="32" fill="white"/>
</clipPath>
</defs>
</svg>

<svg xmlns="http://www.w3.org/2000/svg" width="32" height="32" fill="none"><g clip-path="url(#a)"><path fill="#1A1C1F" fill-rule="evenodd" d="M16 2c7.719 0 14 6.281 14 14s-6.281 14-14 14S2 23.719 2 16 8.281 2 16 2m0 2C9.375 4 4 9.375 4 16s5.375 12 12 12 12-5.375 12-12S22.625 4 16 4m0 5c-.562 0-1 .437-1 1v7.75c0 .594.469 1 1 1 .563 0 1-.437 1-1V10c0-.75-.562-1-1-1m0 14.344c-.719 0-1.344-.625-1.344-1.344 0-.75.625-1.344 1.344-1.344.75 0 1.344.594 1.344 1.344 0 .719-.594 1.344-1.344 1.344" clip-rule="evenodd"/></g><defs><clipPath id="a"><path fill="#fff" d="M0 0h32v32H0z"/></clipPath></defs></svg>
